pro/src/icons/stroke-hourglass.svg

<svg width="48" height="48" viewBox="0 0 48 48" fill="none" xmlns="http://www.w3.org/2000/svg">
<path id="icon" fill-rule="evenodd" clip-rule="evenodd" d="M9 4C8.44772 4 8 4.44772 8 5C8 5.55228 8.44772 6 9 6H11.0228C11.3605 13.3987 15.4291 20.1539 21.8665 23.914L22.0141 24L21.8656 24.0865C15.4283 27.8466 11.3604 34.6013 11.0228 42H9C8.44772 42 8 42.4477 8 43C8 43.5523 8.44772 44 9 44H12H36H39C39.5523 44 40 43.5523 40 43C40 42.4477 39.5523 42 39 42H36.9772C36.6395 34.6013 32.5709 27.8462 26.1335 24.086L25.9859 24L26.1344 23.9135C32.5717 20.1534 36.6396 13.3987 36.9772 6H39C39.5523 6 40 5.55228 40 5C40 4.44772 39.5523 4 39 4H36H32.5C31.9477 4 31.5 4.44772 31.5 5C31.5 5.55228 31.9477 6 32.5 6H34.9749C34.6389 12.6858 30.9498 18.7843 25.1256 22.1865L24 22.8426L22.8739 22.1863C17.0497 18.784 13.361 12.6858 13.0251 6H27C27.5523 6 28 5.55228 28 5C28 4.44772 27.5523 4 27 4H9ZM25.1261 25.8137C30.9503 29.216 34.639 35.3142 34.9749 42H13.0251C13.361 35.3142 17.0502 29.2157 22.8744 25.8135L24 25.1574L25.1261 25.8137Z" fill="currentColor"/>
</svg>

<svg xmlns="http://www.w3.org/2000/svg" width="48" height="48" fill="none"><path id="icon" fill="currentColor" fill-rule="evenodd" d="M9 4a1 1 0 0 0 0 2h2.023a21.91 21.91 0 0 0 10.843 17.914l.148.086-.148.087A21.91 21.91 0 0 0 11.023 42H9a1 1 0 1 0 0 2h30a1 1 0 1 0 0-2h-2.023a21.91 21.91 0 0 0-10.843-17.914L25.986 24l.148-.087A21.91 21.91 0 0 0 36.977 6H39a1 1 0 1 0 0-2h-6.5a1 1 0 1 0 0 2h2.475a19.91 19.91 0 0 1-9.85 16.186L24 22.844l-1.126-.657A19.91 19.91 0 0 1 13.025 6H27a1 1 0 1 0 0-2zm16.126 21.814A19.91 19.91 0 0 1 34.975 42h-21.95a19.91 19.91 0 0 1 9.85-16.186L24 25.157z" clip-rule="evenodd"/></svg>
